remix/Design/clockwise-fill.svg

<svg viewBox="0 0 24 24" fill="currentColor" xmlns="http://www.w3.org/2000/svg"><path d="M20 10H23L19 15L15 10H18V8C18 6.34315 16.6569 5 15 5H11V3H15C17.7614 3 20 5.23858 20 8V10ZM13 9C13.5523 9 14 9.44772 14 10V20C14 20.5523 13.5523 21 13 21H3C2.44772 21 2 20.5523 2 20V10C2 9.44772 2.44772 9 3 9H13Z"/></svg>

<svg viewBox="0 0 24 24" xmlns="http://www.w3.org/2000/svg"><path fill="none" d="M0 0h24v24H0Z"/><path d="M20 10h3l-4 5 -4-5h3V8v0c0-1.66-1.35-3-3-3h-4V3h4v0c2.76 0 5 2.23 5 5v2Zm-7-1v0c.55 0 1 .44 1 1v10 0c0 .55-.45 1-1 1H3v0c-.56 0-1-.45-1-1V10v0c0-.56.44-1 1-1h10Z"/></svg>
